X: 30483
M: 6/8
L: 1/8
K: D
d2d Td2f | d2d Td2f | ecA A2c | ecA ABc |\
d2d Td2f | x3 d2f & d2d ecA | Bcd ecA | d3- d2 :|
|: f/g/ |\
a2f a2f | d2d dfa | b2g b2g | Te2e efg |\
a2f a2f | Td2d ecA | B>cd ecA | d3- d2 :|
|: f/g/ |\
agf agf | d>ed dfa | bag bag | e>Tfe efg |\
agf agf | dfd ecA | Bcd ecA | cAF D3 :|


